**kern	**silbe	**kern	**silbe	**kern	**silbe	**harmony	**phrase	**leadinstrument	**rhyme	**timestamp	**harte
*ICvox	*	*ICvox	*	*ICvox	*	*M4/4	*	*	*	*	*M4/4
*VRlead	*	*VRharmonize	*	*VRharmonize*VRbacking	*	*	*	*	*	*	*
*Hstimme	*	*Nstimme	*	*Nstimme	*	*	*	*	*	*	*
*E-:	*	*E-:	*	*E-:	*	*E-:	*	*	*	*	*E-:
*M4/4	*	*M4/4	*	*M4/4	*	*	*	*	*	*	*
*clefC3	*	*clefF4	*	*clefG2	*	*	*	*	*	*	*
2r	.	2r	.	1r	.	1r;	.	r	.	0	N.C.
8r	.	8r	.	.	.	.	.	.	.	.	.
4b-	It's	4E- 4B- 4e-	It's	.	.	.	.	.	.	.	.
8b-	the	8E- 8B- 8e-	the	.	.	.	.	.	.	.	.
=1	=1	=1	=1	=1	=1	=1	=1	=1	=1	=1	=1
*>Letter>A	*>Letter>A	*>Letter>A	*>Letter>A	*>Letter>A	*>Letter>A	*>Letter>A	*>Letter>A	*>Letter>A	*>Letter>A	*>Letter>A	*>Letter>A
*>Label>Intro	*>Label>Intro	*>Label>Intro	*>Label>Intro	*>Label>Intro	*>Label>Intro	*>Label>Intro	*>Label>Intro	*>Label>Intro	*>Label>Intro	*>Label>Intro	*>Label>Intro
8b-	lit-	8G- 8B- 8d-	lit-	1r	.	1G-M	newline	voice	.	0.438	N.C.
8b-	-tle	8G- 8B- 8d-	-tle	.	.	.	.	.	.	.	.
4b-	old	4F 4A- 4d-	old	.	.	.	.	.	.	.	.
8b-	la-	8E- 8G- 8d-	la-	.	.	.	.	.	.	.	.
8b-	-dy	8E- 8G- 8d-	-dy	.	.	.	.	.	.	.	.
4b-	from	4D- 4G- 4d-	from	.	.	.	.	.	.	.	.
=2	=2	=2	=2	=2	=2	=2	=2	=2	=2	=2	=2
6b-	Pa-	6BB- 6F 6d	Pa-	1r	.	1B-M	.	voice	.	2.722	N.C.
6b-	-sa-	6BB- 6F 6d	-sa-	.	.	.	.	.	.	.	.
8b-q	_	8BB-q 8Fq 8dq	_	.	.	.	.	.	.	.	.
[6cc	-de	[6C [6G [6e-	-de	.	.	.	.	.	.	.	.
8cc]	_	8C] 8G] 8e-]	_	.	.	.	.	.	.	.	.
[4.b-	na	[4.BB- [4.F [4.d	na	.	.	.	.	.	.	.	.
=3	=3	=3	=3	=3	=3	=3	=3	=3	=3	=3	=3
1b-_	_	1BB-_ 1F_ 1d_	_	1r	.	1B-M	.	voice	.	4.384	B-:maj
=4	=4	=4	=4	=4	=4	=4	=4	=4	=4	=4	=4
2b-]	_	2BB-] 2F] 2d]	_	1r	.	1B-M	.	voice	.	6.045	B-:maj
4r	.	2r	.	.	.	.	.	.	.	.	.
8r	.	.	.	.	.	.	.	.	.	.	.
8F	The	.	.	.	.	.	.	.	.	.	.
=5	=5	=5	=5	=5	=5	=5	=5	=5	=5	=5	=5
*>Letter>B	*>Letter>B	*>Letter>B	*>Letter>B	*>Letter>B	*>Letter>B	*>Letter>B	*>Letter>B	*>Letter>B	*>Letter>B	*>Letter>B	*>Letter>B
*>Label>Verse	*>Label>Verse	*>Label>Verse	*>Label>Verse	*>Label>Verse	*>Label>Verse	*>Label>Verse	*>Label>Verse	*>Label>Verse	*>Label>Verse	*>Label>Verse	*>Label>Verse
8E-	lit-	1r	.	1r	.	1E-M	newline	voice	.	7.706	E-:maj
8E-	-tle	.	.	.	.	.	.	.	.	.	.
4F	old	.	.	.	.	.	.	.	.	.	.
8G	la-	.	.	.	.	.	.	.	.	.	.
8G	-dy	.	.	.	.	.	.	.	.	.	.
4B-	from	.	.	.	.	.	.	.	.	.	.
=6	=6	=6	=6	=6	=6	=6	=6	=6	=6	=6	=6
6d-	Pa-	1r	.	1r	.	1E-M	.	voice	.	9.365	E-:maj
6c	-sa-	.	.	.	.	.	.	.	.	.	.
[6G	-de	.	.	.	.	.	.	.	(A	.	.
8G]	_	.	.	.	.	.	.	.	.	.	.
4.B-	na!	.	.	.	.	.	.	.	a)	.	.
=7	=7	=7	=7	=7	=7	=7	=7	=7	=7	=7	=7
1r	.	4E- 4G 4B-	Go,	1r	.	1E-M	.	voice	.	11.024	E-:maj
.	.	8E- 8G 8B-	gran-	.	.	.	.	.	.	.	.
.	.	8E- 8G 8B-	-ny,	.	.	.	.	.	.	.	.
.	.	4E- 4G 4B-	go,	.	.	.	.	.	.	.	.
.	.	8E- 8G 8B-	gran-	.	.	.	.	.	.	.	.
.	.	8E- 8G 8B-	-ny,	.	.	.	.	.	.	.	.
=8	=8	=8	=8	=8	=8	=8	=8	=8	=8	=8	=8
2r	.	8E- 8A- 8c	go	1r	.	4.A-M	.	voice	.	12.682	A-:maj
.	.	8E- 8A- 8c	gran-	.	.	.	.	.	.	.	.
.	.	8E- 8A- 8c	-ny	.	.	.	.	.	.	.	.
.	.	[8E- [8G [8B-	go	.	.	8%5E-M	.	voice	.	13.512	E-:maj
8r	.	8E-] 8G] 8B-]	_	.	.	.	.	.	.	.	.
4G	Has	8r	.	.	.	.	.	.	.	.	.
.	.	4r	.	.	.	.	.	.	.	.	.
8F	a	.	.	.	.	.	.	.	.	.	.
=9	=9	=9	=9	=9	=9	=9	=9	=9	=9	=9	=9
8E-	pret-	1r	.	1r	.	1E-M	newline	voice	.	14.341	E-:maj
8E-	-ty	.	.	.	.	.	.	.	.	.	.
8F	lit-	.	.	.	.	.	.	.	.	.	.
8F	-tle	.	.	.	.	.	.	.	.	.	.
8G	flo-	.	.	.	.	.	.	.	.	.	.
8G	-wer-	.	.	.	.	.	.	.	.	.	.
8B-	-bed	.	.	.	.	.	.	.	.	.	.
8B-	of	.	.	.	.	.	.	.	.	.	.
=10	=10	=10	=10	=10	=10	=10	=10	=10	=10	=10	=10
8d-	white	1r	.	1r	.	1E-M	.	voice	.	15.989	E-:maj
4c	gar-	.	.	.	.	.	.	.	.	.	.
[8G	-den-	.	.	.	.	.	.	.	(A	.	.
8G]	_	.	.	.	.	.	.	.	.	.	.
[4.B-	-ias	.	.	.	.	.	.	.	a)	.	.
=11	=11	=11	=11	=11	=11	=11	=11	=11	=11	=11	=11
4B-]	_	4D 4F 4B-	Go,	1r	.	1B-Mm	.	voice	.	17.637	B-:7
4r	.	8D 8F 8B-	gran-	.	.	.	.	.	.	.	.
.	.	8D 8F 8B-	-ny,	.	.	.	.	.	.	.	.
2r	.	4D 4F 4B-	go,	.	.	.	.	.	.	.	.
.	.	8D 8F 8B-	gran-	.	.	.	.	.	.	.	.
.	.	8D 8F 8B-	-ny,	.	.	.	.	.	.	.	.
=12	=12	=12	=12	=12	=12	=12	=12	=12	=12	=12	=12
2r	.	8C 8F 8A	go	1r	.	4.FM	.	voice	.	19.285	F:maj
.	.	8C 8F 8A	gran-	.	.	.	.	.	.	.	.
.	.	8C 8F 8A	-ny	.	.	.	.	.	.	.	.
.	.	[8BB- [8F [8B-	go	.	.	8%5B-Mm	.	voice	.	20.109	B-:7
4r	.	8BB-] 8F] 8B-]	_	.	.	.	.	.	.	.	.
.	.	8r	.	.	.	.	.	.	.	.	.
8r	.	4r	.	.	.	.	.	.	.	.	.
8~F	But	.	.	.	.	.	.	.	.	.	.
=13	=13	=13	=13	=13	=13	=13	=13	=13	=13	=13	=13
4B-	parked	1r	.	1r	.	1E-M	newline	voice	.	20.933	E-:maj
8B-	in	.	.	.	.	.	.	.	.	.	.
8B-	a	.	.	.	.	.	.	.	.	.	.
8e-	ric-	.	.	.	.	.	.	.	.	.	.
8d	-ke-	.	.	.	.	.	.	.	.	.	.
8d	-ty	.	.	.	.	.	.	.	.	.	.
[8c	old	.	.	.	.	.	.	.	.	.	.
=14	=14	=14	=14	=14	=14	=14	=14	=14	=14	=14	=14
4c]	_	1r	.	1r	.	1A-M	.	voice	.	22.585	A-:maj
8A-	ga-	.	.	.	.	.	.	.	.	.	.
[8A-	-rage,	.	.	.	.	.	.	.	B	.	.
8A-]	_	.	.	.	.	.	.	.	.	.	.
4A-	is	.	.	.	.	.	.	.	.	.	.
8A-	a	.	.	.	.	.	.	.	.	.	.
=15	=15	=15	=15	=15	=15	=15	=15	=15	=15	=15	=15
4c	brand	4A- 4f	brand	1r	.	2FM	.	voice	.	24.237	F:maj
4c	new	4A- 4f	new	.	.	.	.	.	.	.	.
8d-	shi-	8A- 8e-	shi-	.	.	2D-M	.	voice	.	25.063	D-:maj
8d-	-ny	8A- 8e-	-ny	.	.	.	.	.	.	.	.
4d-	red	4A- 4e-	red	.	.	.	.	.	.	.	.
=16	=16	=16	=16	=16	=16	=16	=16	=16	=16	=16	=16
8B-	su-	8F 8d	su-	1r	.	1B-Mm	.	voice	.	25.889	B-:7
8B-	-per	8F 8d	-per	.	.	.	.	.	.	.	.
4c	Stock	4F 4e-	Stock	.	.	.	.	.	.	.	.
[2B-	Dodge	[2F [2d	Dodge	.	.	.	.	.	B	.	.
=17	=17	=17	=17	=17	=17	=17	=17	=17	=17	=17	=17
2B-]	_	2F] 2d]	_	2r	.	1B-Mm	.	voice	.	27.541	B-:7
*clefF4	*	*	*	*	*	*	*	*	*	*	*
4r	.	2r	.	4r	.	.	.	.	.	.	.
8r	.	.	.	4B-	Ooh	.	.	.	.	.	.
8BB-	And	.	.	.	.	.	.	.	.	.	.
=18	=18	=18	=18	=18	=18	=18	=18	=18	=18	=18	=18
*>Letter>A	*>Letter>A	*>Letter>A	*>Letter>A	*>Letter>A	*>Letter>A	*>Letter>A	*>Letter>A	*>Letter>A	*>Letter>A	*>Letter>A	*>Letter>A
*>Label>Chorus	*>Label>Chorus	*>Label>Chorus	*>Label>Chorus	*>Label>Chorus	*>Label>Chorus	*>Label>Chorus	*>Label>Chorus	*>Label>Chorus	*>Label>Chorus	*>Label>Chorus	*>Label>Chorus
8E-	ev-	1r	.	[1b-	_	1E-M	newline	voice	.	29.193	E-:maj
8E-	-'ry-	.	.	.	.	.	.	.	.	.	.
8C	-bo-	.	.	.	.	.	.	.	.	.	.
8BB-	-dy's	.	.	.	.	.	.	.	.	.	.
8E-	sa-	.	.	.	.	.	.	.	.	.	.
8E-	-yin'	.	.	.	.	.	.	.	.	.	.
8C	that	.	.	.	.	.	.	.	.	.	.
8BB-	there's	.	.	.	.	.	.	.	.	.	.
=19	=19	=19	=19	=19	=19	=19	=19	=19	=19	=19	=19
8G	no-	1r	.	4b-]	_	1E-M	.	voice	.	30.826	E-:maj
8G	-bo-	.	.	.	.	.	.	.	.	.	.
8B-	-dy	.	.	4cc	_	.	.	.	.	.	.
8B-q	_	.	.	.	.	.	.	.	.	.	.
[8c	mea	.	.	.	.	.	.	.	(A	.	.
8c]	_	.	.	4b-	_	.	.	.	.	.	.
8B-	ner	.	.	.	.	.	.	.	a)	.	.
8G	than	.	.	4e-	_	.	.	.	.	.	.
8F	the	.	.	.	.	.	.	.	.	.	.
=20	=20	=20	=20	=20	=20	=20	=20	=20	=20	=20	=20
8E-	lit-	1r	.	[1g	_	1E-M	.	voice	.	32.459	E-:maj
8E-	-tle	.	.	.	.	.	.	.	.	.	.
8C	old	.	.	.	.	.	.	.	.	.	.
8BB-	_	.	.	.	.	.	.	.	.	.	.
8E-	la-	.	.	.	.	.	.	.	.	.	.
8E-	-dy	.	.	.	.	.	.	.	.	.	.
4F	from	.	.	.	.	.	.	.	.	.	.
=21	=21	=21	=21	=21	=21	=21	=21	=21	=21	=21	=21
8G	Pa-	2r	.	2g]	_	1E-M	.	voice	.	34.091	E-:maj
4B-	-sa-	.	.	.	.	.	.	.	.	.	.
[8c	-de	.	.	.	.	.	.	.	(A	.	.
8c]	_	4r	.	4r	.	.	.	.	.	.	.
8B-	na	.	.	.	.	.	.	.	a)	.	.
4r	.	8r	.	4e-	Ooh!	.	.	.	.	.	.
.	.	8c	She	.	.	.	.	.	.	.	.
=22	=22	=22	=22	=22	=22	=22	=22	=22	=22	=22	=22
1r	.	4E- 4A- 4c	drives	[1ee-	_	1A-M	newline	voice	.	35.724	A-:maj
.	.	8D- 8A- 8c	re-	.	.	.	.	.	.	.	.
.	.	8D- 8A- 8c	-al	.	.	.	.	.	.	.	.
.	.	4C 4A- 4c	fast	.	.	.	.	.	.	.	.
.	.	8BB- 8G 8B-	and	.	.	.	.	.	.	.	.
.	.	8BB- 8G 8B-	she	.	.	.	.	.	.	.	.
=23	=23	=23	=23	=23	=23	=23	=23	=23	=23	=23	=23
*clefC3	*	*	*	*	*	*	*	*	*	*	*
2r	.	6C 6A- 6c 6e-	drives	4ee-]	_	1A-M	.	voice	.	37.36	A-:maj
.	.	8Cq 8A-q 8cq 8e-q	_	.	.	.	.	.	.	.	.
.	.	6BB- 6G 6B- 6d-	real	.	.	.	.	.	.	.	.
.	.	.	.	4cc	_	.	.	.	.	.	.
.	.	6C 6A- 6c 6e-	hard	.	.	.	.	.	C	.	.
8r	.	2r	.	4ff	_	.	.	.	.	.	.
4B-	She's	.	.	.	.	.	.	.	.	.	.
.	.	.	.	4ee-	_	.	.	.	.	.	.
8B-	the	.	.	.	.	.	.	.	.	.	.
=24	=24	=24	=24	=24	=24	=24	=24	=24	=24	=24	=24
8c	ter-	1r	.	[1b-	_	1E-M	.	voice	.	38.996	E-:maj
8c	-ror	.	.	.	.	.	.	.	.	.	.
4B-	of	.	.	.	.	.	.	.	.	.	.
8G	Co-	.	.	.	.	.	.	.	.	.	.
8F	-lo-	.	.	.	.	.	.	.	.	.	.
8E-	-ra-	.	.	.	.	.	.	.	.	.	.
8F	-do	.	.	.	.	.	.	.	.	.	.
=25	=25	=25	=25	=25	=25	=25	=25	=25	=25	=25	=25
8G	Bou-	2r	.	1b-]	_	1E-M	.	voice	.	40.632	E-:maj
4F	-le-	.	.	.	.	.	.	.	.	.	.
[8E-	-vard!	.	.	.	.	.	.	.	C	.	.
8E-]	_	8r	.	.	.	.	.	.	.	.	.
4b-	It's	4E- 4B- 4e-	It's	.	.	.	.	.	.	.	.
8b-	the	8E- 8B- 8e-	the	.	.	.	.	.	.	.	.
=26	=26	=26	=26	=26	=26	=26	=26	=26	=26	=26	=26
8b-	lit-	8G- 8B- 8d-	lit-	1r	.	1G-M	newline	voice	.	42.268	G-:maj
8b-	-tle	8G- 8B- 8d-	-tle	.	.	.	.	.	.	.	.
4b-	old	4F 4A- 4d-	old	.	.	.	.	.	.	.	.
8b-	la-	8E- 8G- 8d-	la-	.	.	.	.	.	.	.	.
8b-	-dy	8E- 8G- 8d-	-dy	.	.	.	.	.	.	.	.
4b-	from	4D- 4G- 4d-	from	.	.	.	.	.	.	.	.
=27	=27	=27	=27	=27	=27	=27	=27	=27	=27	=27	=27
6b-	Pa-	6BB- 6F 6d	Pa-	1r	.	1B-M	.	voice	.	43.928	B-:maj
6b-	-sa-	6BB- 6F 6d	-sa-	.	.	.	.	.	.	.	.
8b-q	_	8BB-q 8Fq 8dq	_	.	.	.	.	.	.	.	.
[6cc	-de	[6C [6G [6e-	-de	.	.	.	.	.	(A	.	.
8cc]	_	8C] 8G] 8e-]	_	.	.	.	.	.	.	.	.
[4.b-	na	[4.BB- [4.F [4.d	na	.	.	.	.	.	a)	.	.
=28	=28	=28	=28	=28	=28	=28	=28	=28	=28	=28	=28
1b-_	_	1BB-_ 1F_ 1d_	_	1r	.	1B-M	.	voice	.	45.587	B-:maj
=29	=29	=29	=29	=29	=29	=29	=29	=29	=29	=29	=29
2b-]	_	2BB-] 2F] 2d]	_	1r	.	1B-M	.	voice	.	47.247	B-:maj
8r	.	2r	.	.	.	.	.	.	.	.	.
4G	If	.	.	.	.	.	.	.	.	.	.
8F	you	.	.	.	.	.	.	.	.	.	.
=30	=30	=30	=30	=30	=30	=30	=30	=30	=30	=30	=30
*>Letter>B	*>Letter>B	*>Letter>B	*>Letter>B	*>Letter>B	*>Letter>B	*>Letter>B	*>Letter>B	*>Letter>B	*>Letter>B	*>Letter>B	*>Letter>B
*>Label>Verse	*>Label>Verse	*>Label>Verse	*>Label>Verse	*>Label>Verse	*>Label>Verse	*>Label>Verse	*>Label>Verse	*>Label>Verse	*>Label>Verse	*>Label>Verse	*>Label>Verse
8E-	see	1r	.	1r	.	1E-M	newline	voice	.	48.907	E-:maj
8E-	her	.	.	.	.	.	.	.	.	.	.
8F	on	.	.	.	.	.	.	.	.	.	.
8F	the	.	.	.	.	.	.	.	.	.	.
4G	street,	.	.	.	.	.	.	.	.	.	.
4B-	don't	.	.	.	.	.	.	.	.	.	.
=31	=31	=31	=31	=31	=31	=31	=31	=31	=31	=31	=31
8d-	try	1r	.	1r	.	1E-M	.	voice	.	50.583	E-:maj
4c	to	.	.	.	.	.	.	.	.	.	.
[4G	choose	.	.	.	.	.	.	.	D	.	.
8G]	_	.	.	.	.	.	.	.	.	.	.
4B-	her!	.	.	.	.	.	.	.	.	.	.
=32	=32	=32	=32	=32	=32	=32	=32	=32	=32	=32	=32
1r	.	4E- 4G 4B-	Go,	1r	.	1E-M	.	voice	.	52.26	E-:maj
.	.	8E- 8G 8B-	gran-	.	.	.	.	.	.	.	.
.	.	8E- 8G 8B-	-ny,	.	.	.	.	.	.	.	.
.	.	4E- 4G 4B-	go,	.	.	.	.	.	.	.	.
.	.	8E- 8G 8B-	gran-	.	.	.	.	.	.	.	.
.	.	8E- 8G 8B-	-ny,	.	.	.	.	.	.	.	.
=33	=33	=33	=33	=33	=33	=33	=33	=33	=33	=33	=33
2r	.	8E- 8A- 8c	go	1r	.	4.A-M	.	voice	.	53.936	A-:maj
.	.	8E- 8A- 8c	gran-	.	.	.	.	.	.	.	.
.	.	8E- 8A- 8c	-ny	.	.	.	.	.	.	.	.
.	.	[8E- [8G [8B-	go	.	.	8%5E-M	.	voice	.	54.774	E-:maj
8r	.	8E-] 8G] 8B-]	_	.	.	.	.	.	.	.	.
4r	.	8r	.	.	.	.	.	.	.	.	.
.	.	4r	.	.	.	.	.	.	.	.	.
8F	You	.	.	.	.	.	.	.	.	.	.
=34	=34	=34	=34	=34	=34	=34	=34	=34	=34	=34	=34
4E-	might	1r	.	1r	.	1E-M	newline	voice	.	55.612	E-:maj
8F	drive	.	.	.	.	.	.	.	.	.	.
8F	a	.	.	.	.	.	.	.	.	.	.
8G	go-	.	.	.	.	.	.	.	.	.	.
8G	-er	.	.	.	.	.	.	.	.	.	.
8B-	but	.	.	.	.	.	.	.	.	.	.
8B-	you'll	.	.	.	.	.	.	.	.	.	.
=35	=35	=35	=35	=35	=35	=35	=35	=35	=35	=35	=35
8d-	ne-	1r	.	1r	.	1E-M	.	voice	.	57.246	E-:maj
4c	-ver	.	.	.	.	.	.	.	.	.	.
[8G	lose	.	.	.	.	.	.	.	D	.	.
8G]	_	.	.	.	.	.	.	.	.	.	.
[4.B-	her	.	.	.	.	.	.	.	.	.	.
=36	=36	=36	=36	=36	=36	=36	=36	=36	=36	=36	=36
4B-]	_	4D 4F 4B-	Go,	1r	.	1B-Mm	.	voice	.	58.88	B-:7
4r	.	8D 8F 8B-	gran-	.	.	.	.	.	.	.	.
.	.	8D 8F 8B-	-ny,	.	.	.	.	.	.	.	.
2r	.	4D 4F 4B-	go,	.	.	.	.	.	.	.	.
.	.	8D 8F 8B-	gran-	.	.	.	.	.	.	.	.
.	.	8D 8F 8B-	-ny,	.	.	.	.	.	.	.	.
=37	=37	=37	=37	=37	=37	=37	=37	=37	=37	=37	=37
2r	.	8C 8F 8A	go	1r	.	4.FM	.	voice	.	60.514	F:maj
.	.	8C 8F 8A	gran-	.	.	.	.	.	.	.	.
.	.	8C 8F 8A	-ny	.	.	.	.	.	.	.	.
.	.	[8BB- [8F [8B-	go	.	.	8%5B-Mm	.	voice	.	61.331	B-:7
8r	.	8BB-] 8F] 8B-]	_	.	.	.	.	.	.	.	.
4B-	Well,	8r	.	.	.	.	.	.	.	.	.
.	.	4r	.	.	.	.	.	.	.	.	.
8B-	she's	.	.	.	.	.	.	.	.	.	.
=38	=38	=38	=38	=38	=38	=38	=38	=38	=38	=38	=38
8B-	gon-	1r	.	1r	.	1E-M	newline	voice	.	62.148	E-:maj
8B-	-na	.	.	.	.	.	.	.	.	.	.
8B-	get	.	.	.	.	.	.	.	.	.	.
8B-	a	.	.	.	.	.	.	.	.	.	.
8e-	tic-	.	.	.	.	.	.	.	.	.	.
8~d	-ket	.	.	.	.	.	.	.	.	.	.
4~d-	soo	.	.	.	.	.	.	.	.	.	.
=39	=39	=39	=39	=39	=39	=39	=39	=39	=39	=39	=39
8c	_	1r	.	1r	.	1A-M	.	voice	.	63.814	A-:maj
8c	ner	.	.	.	.	.	.	.	.	.	.
8A-	or	.	.	.	.	.	.	.	(e	.	.
[8A-	la	.	.	.	.	.	.	.	E	.	.
8A-]	_	.	.	.	.	.	.	.	.	.	.
8A-	ter	.	.	.	.	.	.	.	e)	.	.
8A-	cuz	.	.	.	.	.	.	.	.	.	.
8A-	she	.	.	.	.	.	.	.	.	.	.
=40	=40	=40	=40	=40	=40	=40	=40	=40	=40	=40	=40
4c	can't	4A- 4f	can't	1r	.	2FM	.	voice	.	65.48	F:maj
8c	keep	8A- 8f	keep	.	.	.	.	.	.	.	.
8c	her	8A- 8f	her	.	.	.	.	.	.	.	.
8d-	foot	8A- 8e-	foot	.	.	2D-M	.	voice	.	66.313	D-:maj
8d-	off	8A- 8e-	off	.	.	.	.	.	.	.	.
8d-	the	8A- 8e-	the	.	.	.	.	.	.	.	.
8d-	ac-	8A- 8e-	ac-	.	.	.	.	.	.	.	.
=41	=41	=41	=41	=41	=41	=41	=41	=41	=41	=41	=41
8B-	-ce-	8F 8d	-ce-	1r	.	1B-Mm	.	voice	.	67.146	B-:7
8B-	-le-	8F 8d	-le-	.	.	.	.	.	(e	.	.
4c	-ra-	4F 4e-	-ra-	.	.	.	.	.	E	.	.
[2B-	-tor	[2F [2d	-tor	.	.	.	.	.	e)	.	.
=42	=42	=42	=42	=42	=42	=42	=42	=42	=42	=42	=42
2B-]	_	2F] 2d]	_	2r	.	1B-Mm	.	voice	.	68.812	B-:7
*clefF4	*	*	*	*	*	*	*	*	*	*	*
4r	.	2r	.	4r	.	.	.	.	.	.	.
8r	.	.	.	4B-	Ooh	.	.	.	.	.	.
8BB-	And	.	.	.	.	.	.	.	.	.	.
=43	=43	=43	=43	=43	=43	=43	=43	=43	=43	=43	=43
*>Letter>A	*>Letter>A	*>Letter>A	*>Letter>A	*>Letter>A	*>Letter>A	*>Letter>A	*>Letter>A	*>Letter>A	*>Letter>A	*>Letter>A	*>Letter>A
*>Label>Chorus	*>Label>Chorus	*>Label>Chorus	*>Label>Chorus	*>Label>Chorus	*>Label>Chorus	*>Label>Chorus	*>Label>Chorus	*>Label>Chorus	*>Label>Chorus	*>Label>Chorus	*>Label>Chorus
8E-	ev-	1r	.	[1b-	_	1E-M	newline	voice	.	70.478	E-:maj
8E-	-'ry-	.	.	.	.	.	.	.	.	.	.
8C	-bo-	.	.	.	.	.	.	.	.	.	.
8BB-	-dy's	.	.	.	.	.	.	.	.	.	.
8E-	sa-	.	.	.	.	.	.	.	.	.	.
8E-	-yin'	.	.	.	.	.	.	.	.	.	.
8C	that	.	.	.	.	.	.	.	.	.	.
8BB-	there's	.	.	.	.	.	.	.	.	.	.
=44	=44	=44	=44	=44	=44	=44	=44	=44	=44	=44	=44
8G	no-	1r	.	4b-]	_	1E-M	.	voice	.	72.127	E-:maj
8G	-bo-	.	.	.	.	.	.	.	.	.	.
8B-	-dy	.	.	4cc	_	.	.	.	.	.	.
8B-q	_	.	.	.	.	.	.	.	.	.	.
[8c	mea	.	.	.	.	.	.	.	(A	.	.
8c]	_	.	.	4b-	_	.	.	.	.	.	.
8B-	ner	.	.	.	.	.	.	.	a)	.	.
8G	than	.	.	4e-	_	.	.	.	.	.	.
8F	the	.	.	.	.	.	.	.	.	.	.
=45	=45	=45	=45	=45	=45	=45	=45	=45	=45	=45	=45
8E-	lit-	1r	.	[1g	_	1E-M	.	voice	.	73.776	E-:maj
8E-	-tle	.	.	.	.	.	.	.	.	.	.
8C	old	.	.	.	.	.	.	.	.	.	.
8BB-	_	.	.	.	.	.	.	.	.	.	.
8E-	la-	.	.	.	.	.	.	.	.	.	.
8E-	-dy	.	.	.	.	.	.	.	.	.	.
4F	from	.	.	.	.	.	.	.	.	.	.
=46	=46	=46	=46	=46	=46	=46	=46	=46	=46	=46	=46
8G	Pa-	2r	.	2g]	_	1E-M	.	voice	.	75.424	E-:maj
4B-	-sa-	.	.	.	.	.	.	.	.	.	.
[8c	-de	.	.	.	.	.	.	.	(A	.	.
8c]	_	4r	.	4r	.	.	.	.	.	.	.
8B-	na	.	.	.	.	.	.	.	a)	.	.
4r	.	8r	.	4e-	Ooh!	.	.	.	.	.	.
.	.	8c	She	.	.	.	.	.	.	.	.
=47	=47	=47	=47	=47	=47	=47	=47	=47	=47	=47	=47
1r	.	4E- 4A- 4c	drives	[1ee-	_	1A-M	newline	voice	.	77.073	A-:maj
.	.	8D- 8A- 8c	re-	.	.	.	.	.	.	.	.
.	.	8D- 8A- 8c	-al	.	.	.	.	.	.	.	.
.	.	4C 4A- 4c	fast	.	.	.	.	.	.	.	.
.	.	8BB- 8G 8B-	and	.	.	.	.	.	.	.	.
.	.	8BB- 8G 8B-	she	.	.	.	.	.	.	.	.
=48	=48	=48	=48	=48	=48	=48	=48	=48	=48	=48	=48
*clefC3	*	*	*	*	*	*	*	*	*	*	*
2r	.	6C 6A- 6c 6e-	drives	4ee-]	_	1A-M	.	voice	.	78.704	A-:maj
.	.	8Cq 8A-q 8cq 8e-q	_	.	.	.	.	.	.	.	.
.	.	6BB- 6G 6B- 6d-	real	.	.	.	.	.	.	.	.
.	.	.	.	4cc	_	.	.	.	.	.	.
.	.	6C 6A- 6c 6e-	hard	.	.	.	.	.	C	.	.
8r	.	2r	.	4ff	_	.	.	.	.	.	.
4B-	She's	.	.	.	.	.	.	.	.	.	.
.	.	.	.	4ee-	_	.	.	.	.	.	.
8B-	the	.	.	.	.	.	.	.	.	.	.
=49	=49	=49	=49	=49	=49	=49	=49	=49	=49	=49	=49
8c	ter-	1r	.	[1b-	_	1E-M	.	voice	.	80.335	E-:maj
8c	-ror	.	.	.	.	.	.	.	.	.	.
4B-	of	.	.	.	.	.	.	.	.	.	.
8G	Co-	.	.	.	.	.	.	.	.	.	.
8F	-lo-	.	.	.	.	.	.	.	.	.	.
8E-	-ra-	.	.	.	.	.	.	.	.	.	.
8F	-do	.	.	.	.	.	.	.	.	.	.
=50	=50	=50	=50	=50	=50	=50	=50	=50	=50	=50	=50
8G	Bou-	2r	.	1b-]	_	1E-M	.	voice	.	81.966	E-:maj
4F	-le-	.	.	.	.	.	.	.	.	.	.
[8E-	-vard!	.	.	.	.	.	.	.	C	.	.
8E-]	_	8r	.	.	.	.	.	.	.	.	.
4b-	It's	4E- 4B- 4e-	It's	.	.	.	.	.	.	.	.
8b-	the	8E- 8B- 8e-	the	.	.	.	.	.	.	.	.
=51	=51	=51	=51	=51	=51	=51	=51	=51	=51	=51	=51
8b-	lit-	8G- 8B- 8d-	lit-	1r	.	1G-M	newline	voice	.	83.598	G-:maj
8b-	-tle	8G- 8B- 8d-	-tle	.	.	.	.	.	.	.	.
4b-	old	4F 4A- 4d-	old	.	.	.	.	.	.	.	.
8b-	la-	8E- 8G- 8d-	la-	.	.	.	.	.	.	.	.
8b-	-dy	8E- 8G- 8d-	-dy	.	.	.	.	.	.	.	.
4b-	from	4D- 4G- 4d-	from	.	.	.	.	.	.	.	.
=52	=52	=52	=52	=52	=52	=52	=52	=52	=52	=52	=52
6b-	Pa-	6BB- 6F 6d	Pa-	1r	.	1B-M	.	voice	.	85.265	B-:maj
6b-	-sa-	6BB- 6F 6d	-sa-	.	.	.	.	.	.	.	.
8b-q	_	8BB-q 8Fq 8dq	_	.	.	.	.	.	.	.	.
[6cc	-de	[6C [6G [6e-	-de	.	.	.	.	.	.	.	.
8cc]	_	8C] 8G] 8e-]	_	.	.	.	.	.	.	.	.
[4.b-	na	[4.BB- [4.F [4.d	na	.	.	.	.	.	.	.	.
=53	=53	=53	=53	=53	=53	=53	=53	=53	=53	=53	=53
1b-]	_	1BB-] 1F] 1d]	_	1r	.	1B-M	.	voice	.	86.933	B-:maj
=54	=54	=54	=54	=54	=54	=54	=54	=54	=54	=54	=54
2a	_	2AA 2E 2c#	_	1r	.	1AM	.	voice	.	88.6	A:maj
2r	.	2r	.	.	.	.	.	.	.	.	.
=55	=55	=55	=55	=55	=55	=55	=55	=55	=55	=55	=55
*>Letter>B2	*>Letter>B2	*>Letter>B2	*>Letter>B2	*>Letter>B2	*>Letter>B2	*>Letter>B2	*>Letter>B2	*>Letter>B2	*>Letter>B2	*>Letter>B2	*>Letter>B2
*>Label>Verse	*>Label>Verse	*>Label>Verse	*>Label>Verse	*>Label>Verse	*>Label>Verse	*>Label>Verse	*>Label>Verse	*>Label>Verse	*>Label>Verse	*>Label>Verse	*>Label>Verse
*F:	*	*F:	*	*F:	*	*F:	*F:	*F:	*	*F:	*F:
1r	.	1r	.	1r	.	1FM	newline	harmonica	.	90.268	F:maj
=56	=56	=56	=56	=56	=56	=56	=56	=56	=56	=56	=56
1r	.	1r	.	1r	.	1FM	.	harmonica	.	91.93	F:maj
=57	=57	=57	=57	=57	=57	=57	=57	=57	=57	=57	=57
1r	.	4F 4A 4c	Go,	1r	.	1FM	.	harmonica	.	93.592	F:maj
.	.	8F 8A 8c	gran-	.	.	.	.	.	.	.	.
.	.	8F 8A 8c	-ny,	.	.	.	.	.	.	.	.
.	.	4F 4A 4c	go,	.	.	.	.	.	.	.	.
.	.	8F 8A 8c	gran-	.	.	.	.	.	.	.	.
.	.	8F 8A 8c	-ny,	.	.	.	.	.	.	.	.
=58	=58	=58	=58	=58	=58	=58	=58	=58	=58	=58	=58
1r	.	8F 8B- 8d	go	1r	.	4.B-M	.	harmonica	.	95.254	B-:maj
.	.	8F 8B- 8d	gran-	.	.	.	.	.	.	.	.
.	.	8F 8B- 8d	-ny	.	.	.	.	.	.	.	.
.	.	[8F [8A [8c	go	.	.	8%5FM	.	harmonica	.	96.085	F:maj
.	.	8F] 8A] 8c]	_	.	.	.	.	.	.	.	.
.	.	8r	.	.	.	.	.	.	.	.	.
.	.	4r	.	.	.	.	.	.	.	.	.
=59	=59	=59	=59	=59	=59	=59	=59	=59	=59	=59	=59
1r	.	1r	.	1r	.	1FM	newline	harmonica	.	96.916	F:maj
=60	=60	=60	=60	=60	=60	=60	=60	=60	=60	=60	=60
1r	.	1r	.	1r	.	1FM	.	harmonica	.	98.538	F:maj
=61	=61	=61	=61	=61	=61	=61	=61	=61	=61	=61	=61
1r	.	4E 4G 4c	Go,	1r	.	1CMm	.	harmonica	.	100.16	C:7
.	.	8E 8G 8c	gran-	.	.	.	.	.	.	.	.
.	.	8E 8G 8c	-ny,	.	.	.	.	.	.	.	.
.	.	4E 4G 4c	go,	.	.	.	.	.	.	.	.
.	.	8E 8G 8c	gran-	.	.	.	.	.	.	.	.
.	.	8E 8G 8c	-ny,	.	.	.	.	.	.	.	.
=62	=62	=62	=62	=62	=62	=62	=62	=62	=62	=62	=62
2r	.	8D 8G 8B	go	1r	.	4.GM	.	harmonica	.	101.782	G:maj
.	.	8D 8G 8B	gran-	.	.	.	.	.	.	.	.
.	.	8D 8G 8B	-ny	.	.	.	.	.	.	.	.
.	.	[8C [8G [8c	go	.	.	8%5CMm	.	harmonica	.	102.593	C:7
4r	.	8C] 8G] 8c]	_	.	.	.	.	.	.	.	.
.	.	8r	.	.	.	.	.	.	.	.	.
8r	.	4r	.	.	.	.	.	.	.	.	.
8B#	The	.	.	.	.	.	.	.	.	.	.
=63	=63	=63	=63	=63	=63	=63	=63	=63	=63	=63	=63
4c	guys	1r	.	1r	.	1FM	newline	voice	.	103.404	F:maj
8c	come	.	.	.	.	.	.	.	.	.	.
8c	to	.	.	.	.	.	.	.	.	.	.
8f	race	.	.	.	.	.	.	.	.	.	.
8e	her	.	.	.	.	.	.	.	.	.	.
4e	from	.	.	.	.	.	.	.	.	.	.
=64	=64	=64	=64	=64	=64	=64	=64	=64	=64	=64	=64
4d	miles	1r	.	1r	.	1B-M	.	voice	.	105.06	B-:maj
8B-	a-	.	.	.	.	.	.	.	.	.	.
[8B-	-round,	.	.	.	.	.	.	.	F	.	.
8B-]	_	.	.	.	.	.	.	.	.	.	.
4B-	but	.	.	.	.	.	.	.	.	.	.
8B-	she'll	.	.	.	.	.	.	.	.	.	.
=65	=65	=65	=65	=65	=65	=65	=65	=65	=65	=65	=65
8d	give	8B- 8g	give	1r	.	2GM	.	voice	.	106.715	G:maj
8d	them	8B- 8g	them	.	.	.	.	.	.	.	.
8d	a	8B- 8g	a	.	.	.	.	.	.	.	.
[8e-	length,	[8B- [8f	length,	.	.	.	.	.	.	.	.
8e-]	_	8B-] 8f]	_	.	.	2E-M	.	voice	.	107.543	E-:maj
4e-	then	4B- 4f	then	.	.	.	.	.	.	.	.
8e-	she'll	8B- 8f	she'll	.	.	.	.	.	.	.	.
=66	=66	=66	=66	=66	=66	=66	=66	=66	=66	=66	=66
8c	shut	8G 8e	shut	1r	.	1CMm	.	voice	.	108.371	C:7
8c	them	[8G 8e	them	.	.	.	.	.	.	.	.
8d	_	8G] 8f	_	.	.	.	.	.	.	.	.
[8c	down	[8G [8e	down	.	.	.	.	.	F	.	.
2c_	_	2G_ 2e_	down	.	.	.	.	.	.	.	.
=67	=67	=67	=67	=67	=67	=67	=67	=67	=67	=67	=67
4.c]	_	4.G] 4.e]	_	2r	.	1CMm	.	voice	.	110.027	C:7
8r	.	8r	.	.	.	.	.	.	.	.	.
*clefF4	*	*	*	*	*	*	*	*	*	*	*
4r	.	2r	.	4r	.	.	.	.	.	.	.
8r	.	.	.	4c	Ooh	.	.	.	.	.	.
8C	_	.	.	.	.	.	.	.	.	.	.
=68	=68	=68	=68	=68	=68	=68	=68	=68	=68	=68	=68
*>Letter>A2	*>Letter>A2	*>Letter>A2	*>Letter>A2	*>Letter>A2	*>Letter>A2	*>Letter>A2	*>Letter>A2	*>Letter>A2	*>Letter>A2	*>Letter>A2	*>Letter>A2
*>Label>Chorus	*>Label>Chorus	*>Label>Chorus	*>Label>Chorus	*>Label>Chorus	*>Label>Chorus	*>Label>Chorus	*>Label>Chorus	*>Label>Chorus	*>Label>Chorus	*>Label>Chorus	*>Label>Chorus
8F	ev-	1r	.	[1cc	_	1FM	newline	voice	.	111.682	F:maj
8F	-'ry-	.	.	.	.	.	.	.	.	.	.
8D	-bo-	.	.	.	.	.	.	.	.	.	.
8C	-dy's	.	.	.	.	.	.	.	.	.	.
8F	sa-	.	.	.	.	.	.	.	.	.	.
8F	-yin'	.	.	.	.	.	.	.	.	.	.
8D	that	.	.	.	.	.	.	.	.	.	.
8C	there's	.	.	.	.	.	.	.	.	.	.
=69	=69	=69	=69	=69	=69	=69	=69	=69	=69	=69	=69
8A	no-	1r	.	4cc]	_	1FM	.	voice	.	113.328	F:maj
8A	-bo-	.	.	.	.	.	.	.	.	.	.
8c	-dy	.	.	4dd	_	.	.	.	.	.	.
8cq	_	.	.	.	.	.	.	.	.	.	.
[8d	mea	.	.	.	.	.	.	.	(A	.	.
8d]	_	.	.	4cc	_	.	.	.	.	.	.
8c	ner	.	.	.	.	.	.	.	a)	.	.
8A	than	.	.	4f	_	.	.	.	.	.	.
8G	the	.	.	.	.	.	.	.	.	.	.
=70	=70	=70	=70	=70	=70	=70	=70	=70	=70	=70	=70
8F	lit-	1r	.	[1a	_	1FM	.	voice	.	114.975	F:maj
8F	-tle	.	.	.	.	.	.	.	.	.	.
8D	old	.	.	.	.	.	.	.	.	.	.
8C	_	.	.	.	.	.	.	.	.	.	.
8F	la-	.	.	.	.	.	.	.	.	.	.
8F	-dy	.	.	.	.	.	.	.	.	.	.
4G	from	.	.	.	.	.	.	.	.	.	.
=71	=71	=71	=71	=71	=71	=71	=71	=71	=71	=71	=71
8A	Pa-	2r	.	2a]	_	1FM	.	voice	.	116.621	F:maj
4c	-sa-	.	.	.	.	.	.	.	.	.	.
[8d	-de	.	.	.	.	.	.	.	(A	.	.
8d]	_	4r	.	4r	.	.	.	.	.	.	.
8c	na	.	.	.	.	.	.	.	a)	.	.
4r	.	8r	.	4f	Ooh!	.	.	.	.	.	.
.	.	8d	She	.	.	.	.	.	.	.	.
=72	=72	=72	=72	=72	=72	=72	=72	=72	=72	=72	=72
1r	.	4F 4B- 4d	drives	[1ff	_	1B-M	newline	voice	.	118.267	B-:maj
.	.	8~E- 8B- 8d	re-	.	.	.	.	.	.	.	.
.	.	8E- 8B- 8d	-al	.	.	.	.	.	.	.	.
.	.	4D 4B- 4d	fast	.	.	.	.	.	.	.	.
.	.	8C 8A 8c	and	.	.	.	.	.	.	.	.
.	.	8C 8A 8c	she	.	.	.	.	.	.	.	.
=73	=73	=73	=73	=73	=73	=73	=73	=73	=73	=73	=73
*clefC3	*	*	*	*	*	*	*	*	*	*	*
2r	.	6BB- 6B- 6d 6f	drives	4ff]	_	1B-M	.	voice	.	119.91	B-:maj
.	.	8Dq 8B-q 8dq 8fq	_	.	.	.	.	.	.	.	.
.	.	6C 6A 6c 6e-	real	.	.	.	.	.	.	.	.
.	.	.	.	4dd	_	.	.	.	.	.	.
.	.	6D 6B- 6d 6f	hard	.	.	.	.	.	C	.	.
8r	.	2r	.	4gg	_	.	.	.	.	.	.
4c	She's	.	.	.	.	.	.	.	.	.	.
.	.	.	.	4ff	_	.	.	.	.	.	.
8c	the	.	.	.	.	.	.	.	.	.	.
=74	=74	=74	=74	=74	=74	=74	=74	=74	=74	=74	=74
8d	ter-	1r	.	[1cc	_	1FM	.	voice	.	121.552	F:maj
8d	-ror	.	.	.	.	.	.	.	.	.	.
4c	of	.	.	.	.	.	.	.	.	.	.
8A	Co-	.	.	.	.	.	.	.	.	.	.
8G	-lo-	.	.	.	.	.	.	.	.	.	.
8F	-ra-	.	.	.	.	.	.	.	.	.	.
8G	-do	.	.	.	.	.	.	.	.	.	.
=75	=75	=75	=75	=75	=75	=75	=75	=75	=75	=75	=75
8A	Bou-	1r	.	1cc]	_	1FM	.	voice	.	123.195	F:maj
4G	-le-	.	.	.	.	.	.	.	.	.	.
[8F	-vard!	.	.	.	.	.	.	.	C	.	.
8F]	_	.	.	.	.	.	.	.	.	.	.
4cc	It's	.	.	.	.	.	.	.	.	.	.
8cc	the	.	.	.	.	.	.	.	.	.	.
=76	=76	=76	=76	=76	=76	=76	=76	=76	=76	=76	=76
8cc	lit-	8A- 8c 8e-	lit-	1r	.	1A-M	newline	voice	.	124.837	A-:maj
8cc	-tle	8A- 8c 8e-	-tle	.	.	.	.	.	.	.	.
4cc	old	4G 4B- 4e-	old	.	.	.	.	.	.	.	.
8cc	la-	8F 8A- 8e	la-	.	.	.	.	.	.	.	.
8cc	-dy	8F 8A- 8e	-dy	.	.	.	.	.	.	.	.
4cc	from	4E 4A- 4e	from	.	.	.	.	.	.	.	.
=77	=77	=77	=77	=77	=77	=77	=77	=77	=77	=77	=77
*D-:	*	*D-:	*	*D-:	*	*	*	*	*	*	*
6dd-	Pa-	6D- 6A- 6f	Pa-	1r	.	1D-M	.	voice	.	126.449	D-:maj
6dd-	-sa-	6D- 6A- 6f	-sa-	.	.	.	.	.	.	.	.
8dd-q	_	8D-q 8A-q 8fq	_	.	.	.	.	.	.	.	.
[6ee-	-de	[6E- [6B- [6g-	-de	.	.	.	.	.	.	.	.
8ee-]	_	8E-] 8B-] 8g-]	_	.	.	.	.	.	.	.	.
[4.dd-	na	[4.D- [4.A- [4.f	na	.	.	.	.	.	.	.	.
=78	=78	=78	=78	=78	=78	=78	=78	=78	=78	=78	=78
2.dd-_	_	4D-] 4A-] 4f]	_	1r	.	1D-M	.	voice	.	128.06	D-:maj
.	.	4r	.	.	.	.	.	.	.	.	.
.	.	2r	.	.	.	.	.	.	.	.	.
8dd-]	_	.	.	.	.	.	.	.	.	.	.
8r	.	.	.	.	.	.	.	.	.	.	.
=79	=79	=79	=79	=79	=79	=79	=79	=79	=79	=79	=79
*>Letter>B3	*>Letter>B3	*>Letter>B3	*>Letter>B3	*>Letter>B3	*>Letter>B3	*>Letter>B3	*>Letter>B3	*>Letter>B3	*>Letter>B3	*>Letter>B3	*>Letter>B3
*>Label>Outro	*>Label>Outro	*>Label>Outro	*>Label>Outro	*>Label>Outro	*>Label>Outro	*>Label>Outro	*>Label>Outro	*>Label>Outro	*>Label>Outro	*>Label>Outro	*>Label>Outro
1r	.	4D- 4A- 4f	Go,	1r	.	1D-M	newline	voice	.	129.672	D-:maj
.	.	8D- 8A- 8f	gran-	.	.	.	.	.	.	.	.
.	.	8D- 8A- 8f	-ny,	.	.	.	.	.	.	.	.
.	.	4D- 4A- 4f	go,	.	.	.	.	.	.	.	.
.	.	8D- 8A- 8f	gran-	.	.	.	.	.	.	.	.
.	.	8D- 8A- 8f	-ny,	.	.	.	.	.	.	.	.
=80	=80	=80	=80	=80	=80	=80	=80	=80	=80	=80	=80
1r	.	8D- 8B- 8g-	go	1r	.	4.G-M	.	voice	.	131.316	G-:maj
.	.	8D- 8B- 8g-	gran-	.	.	.	.	.	.	.	.
.	.	8D- 8B- 8g-	-ny	.	.	.	.	.	.	.	.
.	.	[8D- [8A- [8f	go	.	.	8%5D-M	.	voice	.	132.138	D-:maj
.	.	4D-] 4A-] 4f]	_	.	.	.	.	.	.	.	.
.	.	4r	.	.	.	.	.	.	.	.	.
=81	=81	=81	=81	=81	=81	=81	=81	=81	=81	=81	=81
1r	.	4C 4A- 4e-	Go,	1r	.	1A-Mm	.	voice	.	132.96	A-:7
.	.	8C 8A- 8e-	gran-	.	.	.	.	.	.	.	.
.	.	8C 8A- 8e-	-ny,	.	.	.	.	.	.	.	.
.	.	4C 4A- 4e-	go,	.	.	.	.	.	.	.	.
.	.	8C 8A- 8e-	gran-	.	.	.	.	.	.	.	.
.	.	8C 8A- 8e-	-ny,	.	.	.	.	.	.	.	.
=82	=82	=82	=82	=82	=82	=82	=82	=82	=82	=82	=82
1r	.	8BB- 8G 8e-	go	1r	.	4.E-M	.	voice	.	134.605	E-:maj
.	.	8BB- 8G 8e-	gran-	.	.	.	.	.	.	.	.
.	.	8BB- 8G 8e-	-ny	.	.	.	.	.	.	.	.
.	.	[8C [8A- [8e-	go	.	.	8%5A-Mm	.	voice	.	135.427	A-:7
.	.	4C] 4A-] 4e-]	_	.	.	.	.	.	.	.	.
.	.	4r	.	.	.	.	.	.	.	.	.
=83	=83	=83	=83	=83	=83	=83	=83	=83	=83	=83	=83
1r	.	4D- 4A- 4f	Go,	1r	.	1D-M	newline	voice	.	136.249	D-:maj
.	.	8D- 8A- 8f	gran-	.	.	.	.	.	.	.	.
.	.	8D- 8A- 8f	-ny,	.	.	.	.	.	.	.	.
.	.	4D- 4A- 4f	go,	.	.	.	.	.	.	.	.
.	.	8D- 8A- 8f	gran-	.	.	.	.	.	.	.	.
.	.	8D- 8A- 8f	-ny,	.	.	.	.	.	.	.	.
=84	=84	=84	=84	=84	=84	=84	=84	=84	=84	=84	=84
1r	.	8D- 8B- 8g-	go	1r	.	4.G-M	.	voice	.	137.875	G-:maj
.	.	8D- 8B- 8g-	gran-	.	.	.	.	.	.	.	.
.	.	8D- 8B- 8g-	-ny	.	.	.	.	.	.	.	.
.	.	[8D- [8A- [8f	go	.	.	8%5D-M	.	voice	.	138.688	D-:maj
.	.	4D-] 4A-] 4f]	_	.	.	.	.	.	.	.	.
.	.	4r	.	.	.	.	.	.	.	.	.
=85	=85	=85	=85	=85	=85	=85	=85	=85	=85	=85	=85
1r	.	4C 4A- 4e-	Go,	1r	.	1A-Mm	.	voice	.	139.502	A-:7
.	.	8C 8A- 8e-	gran-	.	.	.	.	.	.	.	.
.	.	8C 8A- 8e-	-ny,	.	.	.	.	.	.	.	.
.	.	4C 4A- 4e-	go,	.	.	.	.	.	.	.	.
.	.	8C 8A- 8e-	gran-	.	.	.	.	.	.	.	.
.	.	8C 8A- 8e-	-ny,	.	.	.	.	.	.	.	.
=86	=86	=86	=86	=86	=86	=86	=86	=86	=86	=86	=86
1r	.	8BB- 8G 8e-	go	1r	.	4.E-M	.	voice	.	141.128	E-:maj
.	.	8BB- 8G 8e-	gran-	.	.	.	.	.	.	.	.
.	.	8BB- 8G 8e-	-ny	.	.	.	.	.	.	.	.
.	.	[8C [8A- [8e-	go	.	.	8%5A-Mm	.	voice	.	141.941	A-:7
.	.	4C] 4A-] 4e-]	_	.	.	.	.	.	.	.	.
.	.	4r	.	.	.	.	.	.	.	.	.
=87	=87	=87	=87	=87	=87	=87	=87	=87	=87	=87	=87
1r	.	4D- 4A- 4f	Go,	1r	.	1D-M	newline	voice	.	142.754	D-:maj
.	.	8D- 8A- 8f	gran-	.	.	.	.	.	.	.	.
.	.	8D- 8A- 8f	-ny,	.	.	.	.	.	.	.	.
.	.	4D- 4A- 4f	go,	.	.	.	.	.	.	.	.
.	.	8D- 8A- 8f	gran-	.	.	.	.	.	.	.	.
.	.	8D- 8A- 8f	-ny,	.	.	.	.	.	.	.	.
=88	=88	=88	=88	=88	=88	=88	=88	=88	=88	=88	=88
1r	.	8D- 8B- 8g-	go	1r	.	4.G-M	.	voice	.	144.357	G-:maj
.	.	8D- 8B- 8g-	gran-	.	.	.	.	.	.	.	.
.	.	8D- 8B- 8g-	-ny	.	.	.	.	.	.	.	.
.	.	[8D- [8A- [8f	go	.	.	8%5D-M	.	voice	.	145.158	D-:maj
.	.	4D-] 4A-] 4f]	_	.	.	.	.	.	.	.	.
.	.	4r	.	.	.	.	.	.	.	.	.
=89	=89	=89	=89	=89	=89	=89	=89	=89	=89	=89	=89
1r	.	4C 4A- 4e-	Go,	1r	.	1A-Mm	.	voice	.	145.96	A-:7
.	.	8C 8A- 8e-	gran-	.	.	.	.	.	.	.	.
.	.	8C 8A- 8e-	-ny,	.	.	.	.	.	.	.	.
.	.	4C 4A- 4e-	go,	.	.	.	.	.	.	.	.
.	.	8C 8A- 8e-	gran-	.	.	.	.	.	.	.	.
.	.	8C 8A- 8e-	-ny,	.	.	.	.	.	.	.	.
=90	=90	=90	=90	=90	=90	=90	=90	=90	=90	=90	=90
1r	.	8BB- 8G 8e-	go	1r	.	4.E-M	.	voice	.	147.562	E-:maj
.	.	8BB- 8G 8e-	gran-	.	.	.	.	.	.	.	.
.	.	8BB- 8G 8e-	-ny	.	.	.	.	.	.	.	.
.	.	[8C [8A- [8e-	go	.	.	8%5A-Mm	.	voice	.	148.364	A-:7
.	.	4C] 4A-] 4e-]	_	.	.	.	.	.	.	.	.
.	.	4r	.	.	.	.	.	.	.	.	.
=91	=91	=91	=91	=91	=91	=91	=91	=91	=91	=91	=91
1r	.	4D- 4A- 4f	Go,	1r	.	1D-M	newline	fadeout	.	149.165	D-:maj
.	.	8D- 8A- 8f	gran-	.	.	.	.	.	.	.	.
.	.	8D- 8A- 8f	-ny,	.	.	.	.	.	.	.	.
.	.	4D- 4A- 4f	go,	.	.	.	.	.	.	.	.
.	.	8D- 8A- 8f	gran-	.	.	.	.	.	.	.	.
.	.	8D- 8A- 8f	-ny,	.	.	.	.	.	.	.	.
=92	=92	=92	=92	=92	=92	=92	=92	=92	=92	=92	=92
1r	.	8D- 8B- 8g-	go	1r	.	4.G-M	.	fadeout	.	150.796	G-:maj
.	.	8D- 8B- 8g-	gran-	.	.	.	.	.	.	.	.
.	.	8D- 8B- 8g-	-ny	.	.	.	.	.	.	.	.
.	.	[8D- [8A- [8f	go	.	.	8%5D-M	.	fadeout	.	151.612	D-:maj
.	.	4D-] 4A-] 4f]	_	.	.	.	.	.	.	.	.
.	.	4r	.	.	.	.	.	.	.	.	.
=93	=93	=93	=93	=93	=93	=93	=93	=93	=93	=93	=93
1r	.	4C 4A- 4e-	Go,	1r	.	1A-Mm	.	fadeout	.	152.427	A-:7
.	.	8C 8A- 8e-	gran-	.	.	.	.	.	.	.	.
.	.	8C 8A- 8e-	-ny,	.	.	.	.	.	.	.	.
.	.	4C 4A- 4e-	go,	.	.	.	.	.	.	.	.
.	.	8C 8A- 8e-	gran-	.	.	.	.	.	.	.	.
.	.	8C 8A- 8e-	-ny,	.	.	.	.	.	.	.	.
=94	=94	=94	=94	=94	=94	=94	=94	=94	=94	=94	=94
1r	.	8BB- 8G 8e-	go	1r	.	4.E-M	.	fadeout	.	154.059	E-:maj
.	.	8BB- 8G 8e-	gran-	.	.	.	.	.	.	.	.
.	.	8BB- 8G 8e-	-ny	.	.	.	.	.	.	.	.
.	.	[8C [8A- [8e-	go	.	.	8%5A-Mm	.	fadeout	.	154.874	A-:7
.	.	4C] 4A-] 4e-]	_	.	.	.	.	.	.	.	.
.	.	4r	.	.	.	.	.	.	.	.	.
=95	=95	=95	=95	=95	=95	=95	=95	=95	=95	=95	=95
1r	.	4D- 4A- 4f	Go,	1r	.	1D-M	newline	fadeout	.	155.69	D-:maj
.	.	8D- 8A- 8f	gran-	.	.	.	.	.	.	.	.
.	.	8D- 8A- 8f	-ny,	.	.	.	.	.	.	.	.
.	.	4D- 4A- 4f	go,	.	.	.	.	.	.	.	.
.	.	8D- 8A- 8f	gran-	.	.	.	.	.	.	.	.
.	.	8D- 8A- 8f	-ny,	.	.	.	.	.	.	.	.
=96	=96	=96	=96	=96	=96	=96	=96	=96	=96	=96	=96
1r	.	8D- 8B- 8g-	go	1r	.	4.G-M	.	fadeout	.	157.319	G-:maj
.	.	8D- 8B- 8g-	gran-	.	.	.	.	.	.	.	.
.	.	8D- 8B- 8g-	-ny	.	.	.	.	.	.	.	.
.	.	[8D- [8A- [8f	go	.	.	8%5D-M	.	fadeout	.	158.133	D-:maj
.	.	4D-] 4A-] 4f]	_	.	.	.	.	.	.	.	.
.	.	4r	.	.	.	.	.	.	.	.	.
=97	=97	=97	=97	=97	=97	=97	=97	=97	=97	=97	=97
1r	.	4C 4A- 4e-	Go,	1r	.	1A-Mm	.	fadeout	.	158.947	A-:7
.	.	8C 8A- 8e-	gran-	.	.	.	.	.	.	.	.
.	.	8C 8A- 8e-	-ny,	.	.	.	.	.	.	.	.
.	.	4C 4A- 4e-	go,	.	.	.	.	.	.	.	.
.	.	8C 8A- 8e-	gran-	.	.	.	.	.	.	.	.
.	.	8C 8A- 8e-	-ny,	.	.	.	.	.	.	.	.
=98	=98	=98	=98	=98	=98	=98	=98	=98	=98	=98	=98
1r	.	8BB- 8G 8e-	go	1r	.	4.E-M	.	fadeout	.	160.576	E-:maj
.	.	8BB- 8G 8e-	gran-	.	.	.	.	.	.	.	.
.	.	8BB- 8G 8e-	-ny	.	.	.	.	.	.	.	.
.	.	[8C [8A- [8e-	go	.	.	8%5A-Mm	.	fadeout	.	161.39	A-:7
.	.	4C] 4A-] 4e-]	_	.	.	.	.	.	.	.	.
.	.	4r	.	.	.	.	.	.	.	.	.
=99	=99	=99	=99	=99	=99	=99	=99	=99	=99	=99	=99
1r	.	4D- 4A- 4f	Go,	1r	.	1D-M	newline	voice	.	162.205	D-:maj
.	.	8D- 8A- 8f	gran-	.	.	.	.	.	.	.	.
.	.	8D- 8A- 8f	-ny,	.	.	.	.	.	.	.	.
.	.	4D- 4A- 4f	go,	.	.	.	.	.	.	.	.
.	.	8D- 8A- 8f	gran-	.	.	.	.	.	.	.	.
.	.	8D- 8A- 8f	-ny,	.	.	.	.	.	.	.	.
=100	=100	=100	=100	=100	=100	=100	=100	=100	=100	=100	=100
1r	.	8D- 8B- 8g-	go	1r	.	4.G-M	.	voice	.	163.049	G-:maj
.	.	8D- 8B- 8g-	gran-	.	.	.	.	.	.	.	.
.	.	8D- 8B- 8g-	-ny	.	.	.	.	.	.	.	.
.	.	[8D- [8A- [8f	go	.	.	8%5D-M	.	voice	.	163.471	D-:maj
.	.	4D-] 4A-] 4f]	_	.	.	.	.	.	.	.	.
.	.	4r	.	.	.	.	.	.	.	.	.
=101	=101	=101	=101	=101	=101	=101	=101	=101	=101	=101	=101
1r	.	4C 4A- 4e-	Go,	1r	.	1A-Mm	.	voice	.	163.893	A-:7
.	.	8C 8A- 8e-	gran-	.	.	.	.	.	.	.	.
.	.	8C 8A- 8e-	-ny,	.	.	.	.	.	.	.	.
.	.	4C 4A- 4e-	go,	.	.	.	.	.	.	.	.
.	.	8C 8A- 8e-	gran-	.	.	.	.	.	.	.	.
.	.	8C 8A- 8e-	-ny,	.	.	.	.	.	.	.	.
=102	=102	=102	=102	=102	=102	=102	=102	=102	=102	=102	=102
1r	.	8BB- 8G 8e-	go	1r	.	4.E-M	.	voice	.	164.738	E-:maj
.	.	8BB- 8G 8e-	gran-	.	.	.	.	.	.	.	.
.	.	8BB- 8G 8e-	-ny	.	.	.	.	.	.	.	.
.	.	[8C [8A- [8e-	go	.	.	8%5A-Mm	.	voice	.	165.16	A-:7
.	.	4C] 4A-] 4e-]	_	.	.	.	.	.	.	.	.
.	.	4r	.	.	.	.	.	.	.	.	.
r;	.	r;	.	r;	.	1r;	.	r	.	165.582	N.C.
r;	.	r;	.	r;	.	1r;	.	r	.	166.766	N.C.
*-	*-	*-	*-	*-	*-	*-	*-	*-	*-	*-	*-
!!!BillboardChartDate: 1964/07/04
!!!BillboardPeak: 3
!!!BillboardWeeksOnChart: 11
!!!COC: Jan & Dean
!!!ENC: Nathaniel Condit-Schultz
!!!EST: Awating manual error checking and editing.
!!!OTL: The Little Old Lady (From Pasadena)
!!!RDF**chordsym: original McGill chord annotation + (implied pitch class set, with bass pitch in first position)
!!!RDF**harmony: **recip + pitch class of root + harmonic quality
!!!RDF**leadinstrument: original McGill primary instrumentation annotation
!!!RDF**phrase: newline = linebreak in original McGill transcription
!!!RDF**timestamp: McGill audio timestamp in seconds
!!!RDT: 2017/01/12/
!!!SampleActualRank: 22
!!!SampleID#: 0635
!!!SampleTargetRank: 21
